X:1
T:Entry of the Gladiators
T:JULIUS FUČÍK.
T:ENTRY OF THE GLADIATORS.
T:MARCH OF TRIUMPH.
T:Public Domain
T:Public Domain
T:Public Domain
C:Julius Fučík
Z:Public Domain
%%score 1 { ( 2 4 ) | ( 3 5 ) }
L:1/8
Q:1/4=180
M:2/2
K:C
V:1 treble transpose=24 nm="Glockenspiel"
V:2 treble nm="Piano"
V:4 treble 
V:3 bass 
V:5 bass 
V:1
"^Tempo di Marcia." z8 | z8 | z8 | z8 | z8 | z8 | z8 | z8 | z8 | z8 | z8 | z8 |: z8 | z8 | z8 | %15
 z8 | z8 | z8 | z8 | z8 | z8 | z8 | z8 | z8 ||1 z8 | z8 | z8 | z8 :|2 z8 | z8 | z8 | z8 |: z8 | %33
 z8 | z8 | z8 | z8 | z8 | z8 | z8 | z8 | z8 | z8 | z8 | z8 | z8 | z8 |1 z8 :|2 z8 || %49
[K:F][M:2/2]"_TRIO." z8 | z8 | z8 | z8 |"^Glockenspiel and Wood Wind." z4 (af).c.f | %54
 [cfa]2 z2 !arpeggio![cfac']2 z2 | z4 (af).c.f | [cfa]2 z2 !arpeggio![cfac']2 z2 | z4 (_af)._d.f | %58
 [_df_a]2 z2 !arpeggio![dfa_d']2 z2 | z4 (=af).c.f | [cfa]2 z2 !arpeggio![cfac']2 z2 | %61
 z4 (bf).d.f | [dfb]2 z2 [_dfb]2 z2 | z4 (af).c.f | [cfa]2 z2 !arpeggio![cfac']2 z2 | %65
 z4 (gd).=B.d | [=Bdg]2 z2 [dg=b]2 z2 | z4 (c'_b).e.b | [e_bd']2 z2 [ebc']2 z2 | x8 | x8 | x8 | %72
 x8 | x8 | x8 | x8 | z8 | z8 | z8 | z8 | z8 | z8 | z8 | z8 | z8 || z8 | z8 | z8 | z8 | z8 | z8 | %91
 z8 | z8 | z8 | z8 ||[M:2/2]"^Grandioso meno mosso tempo triomphale." z8 | z8 | z8 | z8 | z8 | z8 | %101
 z8 | z8 | z8 | z8 | z8 | z8 | z8 | z8 | z8 | z8 |"^a tempo" z8 | z8 | z8 | z8 | z8 | z8 | z8 | %118
 z8 | z8 | z8 | z8 | z8 | z8 | z8 | z8 | z8 |] %127
V:2
!f! !^![Ee]6 [Ee][Ee] | !^![Ee]6 [Ee][Ee] | [Ee]8- | [Ee]8 | [^F^f]6 [Ff][Ff] | [^F^f]6 [Ff][Ff] | %6
 [^F^f]8- | [Ff]8 |!ff! !^![Gg]6 [Gg][Gg] | !^![Gg]6 [Gg][Gg] |!mf! (G^GA^A Bc!<(!^cd | %11
 ^def^f g^ga!<)!b) |:!ff! .[cec']2 .[ceb]2 ._b._c'.b.=a | ._a2 .g2 (!>!^f2 g2) | %14
 .[ce=a]2 .[ce_a]2 .g._a.g.^f | .=f2 .e2 (^d2 e2) | [Gdg] z .[Gdf].[Gdf] ((!>![GB^c]2 [GBd]2)) | %17
 [Gdg] z .[Gdf].[Gdf] (([GB^c]2 [GBd]2)) | (Bc!<(!^cd ^def^f | g^gab)!<)! (a2 =g2) | %20
 .[cec']2 .[ceb]2 ._b._c'.b.=a | ._a2 .g2 (!>!^f2 g2) | .[cea]2 .[ce_a]2 .g._a.g.^f | %23
 .=f2 .e2 (^d2 e2) ||1 [^FB^d]2 .[FBd].[FBd] ([FB^f]2 B2) | .g.a.g.^f (e2 B2) | %26
 [B^db]2 !^![Bdb]!^![Bdb] !^![Bdb]2 !^![Bdb]2 | .[Bb].[Bb].[Bb].[Bb] .[Bb].[Bb] !^![Bb]2 :|2 %28
 [^Fcd]2 [Fcd][Fcd] ([Aca]2 [Acd]2) | [G_B_e]2 [GBe][GBe] [_B_b]4 | %30
 .[=B=b].[dd'].[^c^c'].[=c=c'] [db]2 [cda]2 | [Bdg]2 z2 z4 |: z2 .[Gce].[Gce] .[Gce]2 .[Gce]2 | %33
 z2 .[Gce]2 z2 .[Gce]2 | z2 [GBf][GBf] [GBf]2 [GBf]2 | z2 [GBdf][GBdf] [GBdf]2 [GBdf]2 | %36
 z2 [GBdf][GBdf] [GBdf]2 [GBdf]2 | z2 [GBdf]2 z2 [GBdf]2 | z2 [Gce][Gce] [Gce]2 [Gce]2 | %39
 z2 [Gce][Gce] [Gce]2 [Gce]2 | z2 [Gce][Gce] [Gce]2 [Gce]2 | z2!<(! [Gce]2 z2 [Gce]2!<)! | %42
 z2 [Ac_e^f][Acef] [Acef]2 [Acef]2 |!<(! z2 [Ac_e^f][Acef] [Acef]2 [Acef]2!<)! | %44
 z2!ff! .[Gceg].[Gceg] z2 .[Gceg].[Gceg] | z2 .[Bdfg].[Bdfg] z2 .[Bdfg].[Bdfg] | %46
 [cec'] z .B.A .G.F.E.D |1 C2 z2 z4 :|2 C z [cec'][cec'] [cec']2 z2 || %49
[K:F][M:2/2]!f! z2 (.[A,CF]4 .[A,CF]2) | z2 [A,CF]2 z4 |!mf! z2 (.[A,CF]4 .[A,CF]2) | %52
!>(! z2 [A,CF]2 z4!>)! |!p! (.A,8 | .B,4 .=B,4) |!<(! (.C8 | .D4 .E4)!<)! | (.F8 | %58
!>(! ._E4 ._D4)!>)! | C8- | C4 !>!C4 |!<(! (.D8 | .[DB]4!<)! .[_DB]4) |!>(! ([C-A]8 | %64
 .G4!>)! .F4) | (A8 |!<(! .G4 .^F4)!<)! | (!tenuto!.A4 !tenuto!.G4 | %68
 !tenuto!.E4 !tenuto!.D2 !tenuto!._D2) |!mf!{C} (.[A,A]8 | .[B,B]4 .[=B,=B]4) | ([Cc]8 | %72
!<(! .[Dd]4 .[Ee]4)!<)! | ([Ff]8 | [Gg]4 [^G^g]4) | ([Aa]8 | [Ff]4) [Ff]4 | ([_A_a]8 | %78
!<(! [Gg]4 [Ff]4)!<)! | !^![dd']4 !^![cc']4 | !^![Aa]4 !^![Ff]4 | [Gg]4!>(! [Dd]4 | %82
 [Ee]4!>)! [Gg]4 | [Ff]8- | [Ff]2 [Aa][Aa] [Aa]2 [Aa]2 ||!mf! (!///-![^ce]2 a2) (!///-![ce]2 a2) | %86
 (!///-![^ce]2 a2) (!///-![ce]2 a2) | (!///-![df]2 a2) (!///-![Ae]2 a2) | %88
 (!///-![^ce]2 a2) (!///-![ce]2 a2) |!<(! (!///-![=ce]2 =c'2) (!///-![ce]2 c'2)!<)! | %90
 (!///-![ce]2 c'2) (!///-![ce]2 c'2) | (!///-!c2 c'2) (!///-!c2 c'2) | %92
 (!///-!c2 c'2) (!///-!c2 c'2) | (!///-!c2 c'2) (!///-!c2 c'2) | (!///-!c2 c'2) (!///-!c2 c'2) || %95
[M:2/2]!fff! !arpeggio![Acfa]8 | [_B_b]4 [=B=b]4 | !arpeggio![cfac']8 | [dd']4 [ee']4 | (.[ff']8 | %100
 .[_e_e']4 .[_d_d']4) | !arpeggio![cfac']8- | [cfac']4!<(! [cc']4!<)! | [dd']8 | %104
!8va(! [bb']4 [bb']4 | [aa']8 | [gg']4 [ff']4 | [aa']8 | [gg']4 [^f^f']4 | !^![aa']4 !^![gg']4 | %110
 !^![ee']4 !^![dd']2 !^![_d_d']2!8va)! |{[Cc]} [Aa]8 | [_B_b]4 [=B=b]4 | !arpeggio![cfac']8 | %114
 [dd']4 [ee']4 |!8va(! [ff']8 | [gg']4 [^g^g']4 | (([aa']8 | [ff']4)) [ff']4!8va)! | !^![ff']8 | %120
 !^![ee']4 !^![dd']4 | !^![dd']4 !^![cc']4 | !^![ff']4 !^![Aa]4 | [cac']8- | ([cac']4 [cgc']4) | %125
 [ff']2 ([ee'][gg']) [ff']2 ([ee'][gg']) | [ff']2 z2 [fac'f']2 z2 |] %127
V:3
 z8 | z8 | (E_ED_D CB,_B,A, | _A,G,_G,F, E,_E,D,^C,) | z8 | z8 | (^F=FE_E D_DC=B, | %7
 _B,A,_A,G, ^F,=F,=E,^D,) |{/[=D,,=D,]} !///-![G,B,]2 F2 !///-![G,B,]2 F2 | %9
 !///-![G,B,]2 F2 !///-![G,B,]2 F2 | !///-![G,B,]2 F2 !///-![G,B,]2 F2 | %11
 [G,,,G,,]2 !^![G,B,F]2 !^![G,B,F]2 !^![G,DF]2 |: [C,,C,]2"^stacc." [E,G,C]2 G,,2 [E,G,C]2 | %13
 [C,,C,]2 [E,G,C]2 G,,2 [E,G,C]2 | [C,,C,]2 [E,G,C]2 G,,2 [E,G,C]2 | %15
 [C,,C,]2 [E,G,C]2 G,,2 [E,G,C]2 | B,,2 [F,G,B,]2 G,,2 [F,G,B,]2 | B,,2 [F,G,B,]2 G,,2 [F,G,B,]2 | %18
 D,2 [F,G,B,]2 G,,2 [F,G,B,]2 | D,2 [F,G,B,]2 G,,2 [F,G,B,]2 | [C,,C,]2 [E,G,C]2 G,,2 [E,G,C]2 | %21
 [C,,C,]2 [E,G,C]2 G,,2 [E,G,C]2 | [C,,C,]2 [E,G,C]2 G,,2 [E,G,C]2 | %23
 [C,,C,]2 [E,G,C]2 G,,2 [E,G,C]2 ||1 B,,2 [^F,B,^D]2 B,,2 [F,B,D]2 | %25
 [E,,E,]2 [G,B,E]2 [E,,E,]2 [G,B,E]2 | %26
 [B,,^F,B,]2 !^![B,,F,B,]!^![B,,F,B,] !^![B,,F,B,]2 !^![B,,F,B,]2 | %27
 .[B,,B,].[_B,,_B,].[A,,A,].[_A,,_A,] .[G,,G,].[^F,,^F,]!^![=F,,=F,]!^![=D,,=D,] :|2 %28
 D,2 [^F,A,D]2 D,2 [F,A,D]2 | ^C,2 [G,_B,_E]2 C,2 [G,B,E]2 | D,2 [G,=B,D]2 [D,,D,]2 [CD^F]2 | %31
 [G,,G,]2 !^![G,,G,]!^![G,,G,] !^![G,,G,]!^![=F,,=F,]!^![E,,E,]!^![D,,D,] |: %32
!ff! [C,,C,]6 [G,,,G,,]2 | [C,,C,]2!<(! [=B,,,=B,,][C,,C,] [^C,,^C,][D,,D,][^D,,^D,][E,,E,]!<)! | %34
 [F,,F,]6 [E,,E,]2 | [D,,D,]6 z2 | [A,,A,]6 [G,,G,]2 | %37
 [F,,F,][G,,G,][F,,F,][E,,E,] [D,,D,][E,,E,][F,,F,][D,,D,] | !^![C,,C,]6 [E,,E,]2 | %39
 !^![G,,,G,,]6 z2 | [C,,C,]6 [G,,,G,,]2 | [C,,C,]2 [B,,,B,,][C,,C,] [D,,D,][E,,E,][F,,F,][G,,G,] | %42
 [^F,,^F,]6 !^![A,,A,]2 | !^![C,C]4 (([B,,B,]2 [C,C]2)) | !^![E,E]4 !^![C,C]4 | %45
 !^![D,D]4 !^![G,,G,]4 | [C,C] z .[B,,B,].[A,,A,] .[G,,G,].[F,,F,].[E,,E,].[D,,D,] |1 %47
 [C,,C,]2 z2 !^![G,,,G,,]4 :|2 [C,,C,] z [C,G,C][C,G,C] [C,G,C]2 z2 ||[K:F][M:2/2] (F,6 E,2) | %50
 (D,2 C,2) (D,C,D,E,) | (F,6 E,2) | (D,2 C,2) (D,C,D,E,) | F,,2 !>![C,F,]4 [C,F,]2 | %54
 F,,2 [C,F,]2 F,,2 [C,F,]2 | F,,2 [C,F,A,]4 [C,F,A,]2 | F,,2 [C,F,A,]2 F,,2 [C,F,A,]2 | %57
 _D,,2 !>![_D,F,_A,]4 [D,F,A,]2 | _D,,2 [_D,F,_A,]2 D,,2 [D,F,A,]2 | F,,2 !>![C,F,=A,]4 [C,F,A,]2 | %60
 F,,2 [C,F,A,]2 F,,2 [C,F,A,]2 | B,,2 [F,B,]4 [F,B,]2 | B,,2 [F,B,]2 B,,2 [F,B,]2 | %63
 C,2 [F,A,]4 [F,A,]2 | C,2 [F,A,]2 C,2 [F,A,]2 | G,,2 [F,G,=B,]4 [F,G,B,]2 | %66
 G,,2 [F,G,=B,]2 G,,2 [F,G,B,]2 | C,2 [E,G,_B,]2 C,2 [E,G,B,]2 | C,2 [G,B,]2 C,2 [G,B,]2 | %69
 F,,2 [C,F,]4 [C,F,]2 | F,,2 [C,F,A,]2 F,,2 [C,F,A,]2 | F,,2 [C,F,A,]4 [C,F,A,]2 | %72
 F,,2 [C,F,A,]2 F,,2 [C,F,A,]2 | [_D,,_D,]2 [F,_A,_D]4 [F,A,D]2 | %74
 [_D,,_D,]2 [F,=B,]2 [D,,D,]2 [F,^G,B,]2 | [C,,C,]2 [F,A,C]4 [F,A,C]2 | %76
 F,,2 [F,A,C]2 A,,2 [F,A,C]2 | [=B,,,=B,,]2 [F,^G,D]4 [F,G,D]2 | %78
 [=B,,,=B,,]2 [F,^G,D]2 [B,,,B,,]2 [F,G,D]2 |"^marc." [C,,C,]2 [F,A,C]2 [C,,C,]2 [F,A,C]2 | %80
 [C,,C,]2 [F,A,C]2"^dim." [C,,C,]2 [F,A,C]2 | G,,2 [F,G,=B,]2 G,,2 [F,G,B,]2 | %82
 [C,,C,]2 [G,_B,C]2 [C,,C,]2 [E,B,C]2 | F,,2 [F,A,C]4 [F,A,C]2 | [F,A,C]2 z2 z4 || %85
 (A,2 A,=B,!<(! C^CD^D!<)! | E) z .E2 .^C2 .A,2 | F2 (ED) (^CD).E.C | .A,2{=C} .B,2 A,4 | %89
[K:treble] (C2 C^C DEF^F |"^cresc." G) z .G2 .E2 .=C2 | _B2 (^FA) .G2 .C2 | %92
"^ossia." [B,B]2 [^F,^F][A,A] !tenuto!.[G,G]2 !tenuto!.C2 | %93
[K:bass] [C,,C,][^C,,^C,][D,,D,][^D,,^D,] [E,,E,][=F,,=F,][^F,,^F,][G,,G,] | %94
"^rit." !^![^G,,^G,]2 !^![A,,A,]2 !^![_B,,_B,]2 !^![=B,,=B,]2 || %95
[M:2/2] F,,2 [F,A,CF][F,A,CF] [F,A,CF]2 [F,A,CF]2 | F,,2 [F,A,CF]2 F,,2 [F,A,CF]2 | %97
 F,,2 [F,A,CF][F,A,CF] [F,A,CF]2 [F,A,CF]2 | F,,2 [F,A,CF]2 F,,2 [F,A,CF]2 | %99
 [_D,,_D,]2 [F,_A,_D][F,A,D] [F,A,D]2 [F,A,D]2 | [_D,,_D,]2 [F,_A,_D]2 [D,,D,]2 [F,A,D]2 | %101
 [F,,F,]2 [F,=A,CF][F,A,CF] [F,A,CF]2 [F,A,CF]2 | [F,,F,]2 [F,A,CF]2 [F,,F,]2 [F,A,CF]2 | %103
 [B,,,B,,]2 [F,B,D][F,B,D] [F,B,D]2 [F,B,D]2 | [B,,,B,,]2 [F,B,D]2 [B,,,B,,]2 [F,B,_D]2 | %105
 [C,,C,]2 [F,A,C][F,A,C] [F,A,C]2 [F,A,C]2 | [C,,C,]2 [F,A,C]2 [C,,C,]2 [A,CF]2 | %107
 [G,,G,]2 [G,=B,F][G,B,F] [G,B,F]2 [G,B,F]2 | [G,,G,]2 [G,=B,F]2 [G,,G,]2 [G,B,F]2 | %109
"^rit." [C,,C,]2 [G,_B,CE]2 [C,,C,]2 [G,B,CE]2 | [C,,C,]2 [G,B,CE]2 [C,,C,]2 [G,B,CE]2 | %111
 [F,,F,]2 [F,A,CF][F,A,CF] [F,A,CF]2 [F,A,CF]2 | [F,,F,]2 [F,A,CF]2 [F,,F,]2 [F,A,CF]2 | %113
 [F,,F,]2 [F,A,CF][F,A,CF] [F,A,CF]2 [F,A,CF]2 | [F,,F,]2 [F,A,CF]2 [F,,F,]2 [F,A,CF]2 | %115
 [_D,,_D,]2 [_A,_DF][A,DF] [A,DF]2 [A,DF]2 | [_D,,_D,]2 [^G,=B,F]2 [D,,D,]2 [G,B,F]2 | %117
 [C,,C,]2 [A,CF][A,CF] [A,CF]2 [A,CF]2 | [A,,,A,,]2 [A,CF]2 [A,,,A,,]2 [A,CF]2 | %119
 [^G,,,^G,,]2"^più mosso" [^G,=B,DF][G,B,DF] [G,B,DF]2 [G,B,DF]2 | %120
 [^G,,,^G,,]2 [^G,=B,F]2 [=B,,,=B,,]2 [G,DF]2 | [C,,C,]2 [A,CF]2 [C,,C,]2 [A,CF]2 | %122
 [C,,C,]2 [A,CF]2 [C,,C,]2 [A,CF]2 | [C,,C,]2 [CEA][CEA] [CEA]2 [CEA]2 | %124
 [C,,C,]2 [_B,EG]2 [C,,C,]2 [B,CE]2 | [F,A,CF]2 !>![F,_B,_D]2 [F,A,C]2 !>![F,B,D]2 | %126
 [F,A,C]2 z2 [F,A,CF]2 z2 |] %127
V:4
 x8 | x8 | x8 | x8 | x8 | x8 | x8 | x8 | x8 | x8 | x8 | x8 |: x8 | x8 | x8 | x8 | x8 | x8 | x8 | %19
 x8 | x8 | x8 | x8 | x8 ||1 x8 | x8 | x8 | x8 :|2 x8 | x8 | x8 | x8 |: x8 | x8 | x8 | x8 | x8 | %37
 x8 | x8 | x8 | x8 | x8 | x8 | x8 | x8 | x8 | x8 |1 x8 :|2 x8 ||[K:F][M:2/2] x8 | x8 | x8 | x8 | %53
 x8 | x8 | x8 | x8 | x8 | x8 | x8 | x8 | x8 | x8 | x8 | C4 C4 | x8 | x8 | E4 E4 | x8 | x8 | x8 | %71
 x8 | x8 | x8 | x8 | x8 | x8 | x8 | x8 | x8 | x8 | x8 | x8 | x8 | x8 || x8 | x8 | x8 | x8 | x8 | %90
 x8 | x8 | x8 | x8 | x8 ||[M:2/2] x8 | x8 | x8 | x8 | x8 | x8 | x8 | x8 | x8 |!8va(! x8 | x8 | x8 | %107
 x8 | x8 | x8 | x8!8va)! | x8 | x8 | x8 | x8 |!8va(! x8 | x8 | x8 | x8!8va)! | x8 | x8 | x8 | x8 | %123
 x8 | x8 | x8 | x8 |] %127
V:5
 x8 | x8 | x8 | x8 | x8 | x8 | x8 | x8 | x8 | x8 | x8 | x8 |: x8 | x8 | x8 | x8 | x8 | x8 | x8 | %19
 x8 | x8 | x8 | x8 | x8 ||1 x8 | x8 | x8 | x8 :|2 x8 | x8 | x8 | x8 |: x8 | x8 | x8 | x8 | x8 | %37
 x8 | x8 | x8 | x8 | x8 | x8 | x8 | x8 | x8 | x8 |1 x8 :|2 x8 ||[K:F][M:2/2] x8 | x8 | x8 | x8 | %53
 x8 | x8 | x8 | x8 | x8 | x8 | x8 | x8 | x8 | x8 | x8 | x8 | x8 | x8 | x8 | x8 | x8 | x8 | x8 | %72
 x8 | x8 | x8 | x8 | x8 | x8 | x8 | x8 | x8 | x8 | x8 | x8 | x8 || x8 | x8 | x8 | x8 | %89
[K:treble] x8 | x8 | x8 | x6 C2 |[K:bass] x8 | x8 ||[M:2/2] x8 | x8 | x8 | x8 | x8 | x8 | x8 | x8 | %103
 x8 | x8 | x8 | x8 | x8 | x8 | x8 | x8 | x8 | x8 | x8 | x8 | x8 | x8 | x8 | x8 | x8 | x8 | x8 | %122
 x8 | x8 | x8 | x8 | x8 |] %127

